X:489
T: Ich armes Hselein (5-85), S. 136
N: P0759
O: Lothringen
S: MERKELBACH-PINCK, Angelika: Verklingende Weisen, Bd 5, Kassel 1962]
R: Jagdlied]
M: 2/4
L: 1/16
K: G
G2 | G2E2=F3D | D6G2 | A2c2B2A2 | G6
G2 | G2E2=F2E2 | E3DD4 | A2c2B2A2 | G6
E2 | A4A2B2 | A6B2 | d2c2B2A2 | B6
A2 | G2G2G2G2 | D4B2A2 | G4F4 | G4z2

